src/24/panel/notification-new-symbolic.svg

<?xml version="1.0" encoding="UTF-8" standalone="no"?>
<svg
   xmlns:dc="http://purl.org/dc/elements/1.1/"
   xmlns:cc="http://creativecommons.org/ns#"
   xmlns:rdf="http://www.w3.org/1999/02/22-rdf-syntax-ns#"
   xmlns:svg="http://www.w3.org/2000/svg"
   xmlns="http://www.w3.org/2000/svg"
   xmlns:sodipodi="http://sodipodi.sourceforge.net/DTD/sodipodi-0.dtd"
   xmlns:inkscape="http://www.inkscape.org/namespaces/inkscape"
   width="24"
   height="24"
   version="1.1"
   id="svg9"
   sodipodi:docname="notification-new-symbolic.svg"
   inkscape:version="0.92.4 (5da689c313, 2019-01-14)">
  <metadata
     id="metadata13">
    <rdf:RDF>
      <cc:Work
         rdf:about="">
        <dc:format>image/svg+xml</dc:format>
        <dc:type
           rdf:resource="http://purl.org/dc/dcmitype/StillImage" />
      </cc:Work>
    </rdf:RDF>
  </metadata>
  <sodipodi:namedview
     pagecolor="#bebebe"
     bordercolor="#666666"
     borderopacity="1"
     objecttolerance="10"
     gridtolerance="10"
     guidetolerance="10"
     inkscape:pageopacity="0"
     inkscape:pageshadow="2"
     inkscape:window-width="1366"
     inkscape:window-height="708"
     id="namedview11"
     showgrid="true"
     inkscape:snap-bbox="true"
     inkscape:bbox-nodes="true"
     inkscape:zoom="13.906433"
     inkscape:cx="18.318601"
     inkscape:cy="10.164173"
     inkscape:window-x="0"
     inkscape:window-y="30"
     inkscape:window-maximized="1"
     inkscape:current-layer="svg9">
    <inkscape:grid
       type="xygrid"
       id="grid826" />
  </sodipodi:namedview>
  <defs
     id="defs3">
    <style
       id="current-color-scheme"
       type="text/css">
   .ColorScheme-Text { color:#bebebe; } .ColorScheme-Highlight { color:#5294e2; }
  </style>
  </defs>
  <path
     style="display:inline;opacity:1;fill:#bebebe;fill-opacity:1;stroke:none;stroke-width:3;stroke-linecap:round;stroke-miterlimit:4;stroke-dasharray:none;stroke-opacity:1;enable-background:new"
     d="M 12 5 C 11.44772 5 11 5.44772 11 6 C 11 6.0333 11.001859 6.0665094 11.005859 6.0996094 C 8.7156782 6.5584302 7.0000799 8.5708397 7 11 L 7 15.5 L 5 17.5 L 5 18 L 7 18 L 17 18 L 19 18 L 19 17.5 L 17 15.5 L 17 13 L 17 11.826172 A 3 3 0 0 1 16 12 L 16 14 L 16 15 L 16 15.921875 L 17 17 L 16 17 L 8 17 L 7 17 L 8 15.921875 L 8 15 L 8 14 L 8 11 A 4.0000086 4.0000086 0 0 1 12 7 A 4.0000086 4.0000086 0 0 1 13.525391 7.3046875 A 3 3 0 0 1 14.263672 6.5585938 C 13.865558 6.3560861 13.445665 6.1900653 12.994141 6.0996094 C 12.998141 6.0665094 12.9997 6.0333 13 6 C 13 5.44772 12.552281 5.0000004 12 5 z M 12 8 A 3 3 0 0 0 9 11 L 9 16 L 15 16 L 15 11.824219 A 3 3 0 0 1 13 9 A 3 3 0 0 1 13.109375 8.2128906 A 3 3 0 0 0 12 8 z M 10.269531 19 C 10.626511 19.61831 11.28603 19.99944 12 20 C 12.71327 19.9987 13.371886 19.61771 13.728516 19 L 10.269531 19 z "
     id="path5938" />
  <circle
     style="color:#5294e2;fill:currentColor"
     class="ColorScheme-Highlight"
     cx="16"
     cy="9"
     r="2"
     id="circle7" />
</svg>

<svg xmlns="http://www.w3.org/2000/svg" width="24" height="24" version="1.1" id="svg9"><defs id="defs3"><style id="current-color-scheme" type="text/css"></style></defs><path d="M12 5a1 1 0 0 0-.994 1.1A4.988 4.988 0 0 0 7 11v4.5l-2 2v.5h14v-.5l-2-2v-3.674A3 3 0 0 1 16 12v3.922L17 17H7l1-1.078V11a4 4 0 0 1 4-4 4 4 0 0 1 1.525.305 3 3 0 0 1 .739-.746 4.94 4.94 0 0 0-1.27-.46A1 1 0 0 0 12 5zm0 3a3 3 0 0 0-3 3v5h6v-4.176A3 3 0 0 1 13 9a3 3 0 0 1 .11-.787A3 3 0 0 0 12 8zm-1.73 11A2 2 0 0 0 12 20a2 2 0 0 0 1.729-1h-3.46z" id="path5938" display="inline" opacity="1" fill="#bebebe" fill-opacity="1" stroke="none" stroke-width="3" stroke-linecap="round" stroke-miterlimit="4" stroke-dasharray="none" stroke-opacity="1"/><circle cx="16" cy="9" r="2" id="circle7" color="#5294e2" fill="currentColor"/></svg>
